packages/katcn/src/icons/svg/arrow1.svg

<svg width="24" height="25" viewBox="0 0 24 25" fill="none" xmlns="http://www.w3.org/2000/svg">
<path d="M7.5443 22.296C7.03797 22.296 6.43038 22.1959 5.92405 21.8957C4.70886 21.2953 4 20.1945 4 18.8936V5.68412C4 4.3832 4.70886 3.28241 5.92405 2.68198C7.13924 2.08155 8.65823 2.18162 9.77215 2.98219L18.5823 9.58691C19.4937 10.2874 20 11.1881 20 12.2888C20 13.3896 19.4937 14.3903 18.5823 14.9908L9.77215 21.5955C9.16456 22.0958 8.35443 22.296 7.5443 22.296ZM7.5443 4.28312C7.34177 4.28312 7.03797 4.3832 6.83544 4.48327C6.32911 4.68341 6.02532 5.18377 6.02532 5.68412V18.7935C6.02532 19.2938 6.32911 19.7942 6.83544 20.0944C7.24051 20.2946 7.94937 20.3946 8.55696 19.8943L17.3671 13.2896C17.7722 12.9893 17.9747 12.5891 17.9747 12.1888C17.9747 11.7885 17.7722 11.3882 17.3671 11.088L8.55696 4.58334C8.25316 4.38319 7.94937 4.28312 7.5443 4.28312Z" fill="black"/>
</svg>

<svg xmlns="http://www.w3.org/2000/svg" fill="none" viewBox="0 0 24 25"><path fill="#000" d="M7.544 22.296c-.506 0-1.114-.1-1.62-.4C4.71 21.296 4 20.195 4 18.894V5.684c0-1.3.709-2.402 1.924-3.002s2.734-.5 3.848.3l8.81 6.605c.912.7 1.418 1.601 1.418 2.702s-.506 2.101-1.418 2.702l-8.81 6.605c-.607.5-1.418.7-2.228.7m0-18.013c-.202 0-.506.1-.709.2-.506.2-.81.7-.81 1.201v13.11c0 .5.304 1 .81 1.3.406.2 1.114.3 1.722-.2l8.81-6.604c.405-.3.608-.7.608-1.101 0-.4-.203-.8-.608-1.101l-8.81-6.505c-.304-.2-.608-.3-1.013-.3"/></svg>
